dhis-2/dhis-support/dhis-support-system/src/main/resources/SVGs/cholera_positive.svg

<svg width="48" height="48" viewBox="0 0 48 48" fill="none" xmlns="http://www.w3.org/2000/svg">
<path d="M29.4527 4C28.0457 4 26.9137 5.11549 26.9137 6.50197V7.27536V7.33196V9.83393H29.4527H31.9936V9.00584H37.1446H41.4335H43.9745V6.50197V4H41.4335H37.1446H29.4527ZM25.9587 10.2269C25.4127 10.2269 24.9727 10.6599 24.9727 11.1969V12.8479C24.9727 13.3849 25.4127 13.8179 25.9587 13.8179H32.6206C33.1666 13.8179 33.6046 13.3849 33.6046 12.8479V11.1969C33.6046 10.6599 33.1666 10.2269 32.6206 10.2269H25.9587ZM15.1619 13.8399C8.99734 13.8389 4 18.7108 4 24.7187C4.0003 30.7267 8.99734 35.5956 15.1619 35.5956C20.2518 35.5906 24.6947 32.2316 25.9627 27.4277C26.7577 28.3467 27.8087 28.9197 28.9727 28.9197C31.4437 28.9207 33.4476 26.3937 33.4466 23.2748C33.4476 20.1568 29.1897 14.5749 28.9387 14.8219C28.9387 14.8219 26.6447 17.5958 25.3567 20.3118C23.5708 16.3808 19.5748 13.8439 15.1619 13.8399ZM15.1619 15.6449C20.3028 15.6449 24.4717 19.7078 24.4727 24.7187C24.4717 29.7297 20.3028 33.7896 15.1619 33.7906C10.0199 33.7906 5.85178 29.7297 5.85158 24.7187C5.85178 19.7068 10.0199 15.6439 15.1619 15.6449ZM15.2169 17.5248C14.7559 17.4718 14.2539 17.7128 13.9529 18.1738C11.8999 20.1658 9.04634 24.5147 11.4219 25.0057C11.8829 25.0597 12.3829 24.8207 12.6839 24.3587C13.3779 22.1778 14.5599 20.6788 15.9079 19.4098C16.3088 18.7948 16.1978 18.0218 15.6559 17.6798C15.5209 17.5938 15.3699 17.5428 15.2169 17.5248ZM20.0368 18.0368C19.8118 18.0238 19.5738 18.0918 19.3238 18.2618C18.9658 18.5528 18.7958 19.0748 18.9278 19.6068C20.0518 21.6068 20.3388 23.4848 20.3418 25.3217C20.5168 26.0317 21.1628 26.4837 21.7888 26.3337C22.4148 26.1837 22.7768 25.4887 22.6018 24.7787C22.5598 22.2958 21.6118 18.1318 20.0368 18.0368ZM31.1637 20.4158C34.0126 23.0128 31.1867 28.6387 29.4627 27.6427C29.2597 27.4567 29.0067 27.2167 29.0717 26.7967C29.2957 25.8717 32.2526 25.8107 31.1637 20.4158ZM16.2808 21.8158C15.9279 21.8558 15.5749 22.0518 15.3239 22.3808C14.4669 24.5047 13.1749 25.9127 11.7339 27.0797C11.2879 27.6637 11.3429 28.4427 11.8569 28.8237C12.3719 29.2057 13.1459 29.0407 13.5919 28.4567C15.7889 26.6207 18.9648 22.4918 16.6328 21.8278C16.5188 21.8058 16.3988 21.8028 16.2808 21.8158ZM7.73435 22.7748C7.65645 22.7808 7.57845 22.7958 7.50196 22.8198C6.88936 23.0158 6.58197 23.7348 6.81046 24.4297C7.07296 27.2557 8.67874 32.1876 10.5699 30.6887C10.9049 30.3727 11.0349 29.8397 10.8629 29.3177C9.59103 27.4057 9.16294 25.5537 9.02144 23.7228C8.84974 23.2008 8.42634 22.8448 7.96675 22.7808C7.89015 22.7708 7.81215 22.7688 7.73435 22.7748ZM27.1231 29.8807C27.1231 29.8807 24.9281 32.5196 24.9281 34.0616C24.9281 35.6046 25.9191 36.8526 27.1411 36.8536C28.3631 36.8536 29.3521 35.6046 29.3521 34.0616C29.3521 32.5196 27.2471 29.7587 27.1231 29.8807ZM28.3141 32.3726C29.8931 33.8116 28.3281 36.9286 27.3731 36.3766C27.2611 36.2736 27.1221 36.1406 27.1581 35.9076C27.2821 35.3956 28.9181 35.3626 28.3141 32.3726ZM31.5761 38.4116C31.5761 38.4116 29.8161 40.5255 29.8161 41.7615C29.8161 42.9965 30.6091 43.9995 31.5881 43.9995C32.567 43.9995 33.361 42.9975 33.361 41.7615C33.361 40.5255 31.6761 38.3136 31.5761 38.4116ZM32.426 40.3005C33.952 41.5115 32.441 44.1365 31.5181 43.6715C31.4091 43.5845 31.2711 43.4745 31.3071 43.2785C31.4261 42.8475 33.009 42.8165 32.426 40.3005Z" fill="#333333"/>
</svg>

<?xml version="1.0" encoding="UTF-8" standalone="no"?>
<!-- Created with Inkscape (http://www.inkscape.org/) -->
<svg id="svg8" xmlns:rdf="http://www.w3.org/1999/02/22-rdf-syntax-ns#" xmlns="http://www.w3.org/2000/svg" xmlns:osb="http://www.openswatchbook.org/uri/2009/osb" height="48" width="48" version="1.1" xmlns:cc="http://creativecommons.org/ns#" viewBox="0 0 12.7 12.7" xmlns:dc="http://purl.org/dc/elements/1.1/">
 <title id="title4753">UIO-icon</title>
 <metadata id="metadata5">
  <rdf:RDF>
   <cc:Work rdf:about="">
    <dc:format>image/svg+xml</dc:format>
    <dc:type rdf:resource="http://purl.org/dc/dcmitype/StillImage"/>
    <dc:title>UIO-icon</dc:title>
    <dc:creator>
     <cc:Agent>
      <dc:title>Joaquín Urbano</dc:title>
     </cc:Agent>
    </dc:creator>
    <dc:rights>
     <cc:Agent>
      <dc:title>GPL</dc:title>
     </cc:Agent>
    </dc:rights>
   </cc:Work>
  </rdf:RDF>
 </metadata>
 <g id="layer1" transform="translate(0,-284.3)" fill="#333">
  <path id="rect1844" d="m29.453 4c-1.407 0-2.539 1.1155-2.539 2.502v0.7734 0.0566 2.502h2.539 2.541v-0.8281h5.151 4.289 2.541v-2.5039-2.502h-2.541-4.289-7.692zm-3.494 6.227c-0.546 0-0.986 0.433-0.986 0.97v1.651c0 0.537 0.44 0.97 0.986 0.97h6.662c0.546 0 0.984-0.433 0.984-0.97v-1.651c0-0.537-0.438-0.97-0.984-0.97h-6.662zm-10.797 3.613c-6.1646-0.001-11.162 4.871-11.162 10.879 0.0003 6.008 4.9974 10.877 11.162 10.877 5.09-0.005 9.533-3.364 10.801-8.168 0.795 0.919 1.846 1.492 3.01 1.492 2.471 0.001 4.475-2.526 4.474-5.645 0.001-3.118-4.257-8.7-4.508-8.453 0 0-2.294 2.774-3.582 5.49-1.786-3.931-5.782-6.468-10.195-6.472zm0 1.805c5.141 0 9.31 4.063 9.311 9.074-0.001 5.011-4.17 9.071-9.311 9.072-5.142 0-9.3102-4.061-9.3104-9.072 0.0002-5.012 4.1684-9.075 9.3104-9.074zm0.055 1.88c-0.461-0.053-0.963 0.188-1.264 0.649-2.053 1.992-4.9066 6.341-2.531 6.832 0.461 0.054 0.961-0.185 1.262-0.647 0.694-2.181 1.876-3.68 3.224-4.949 0.401-0.615 0.29-1.388-0.252-1.73-0.135-0.086-0.286-0.137-0.439-0.155zm4.82 0.512c-0.225-0.013-0.463 0.055-0.713 0.225-0.358 0.291-0.528 0.813-0.396 1.345 1.124 2 1.411 3.878 1.414 5.715 0.175 0.71 0.821 1.162 1.447 1.012s0.988-0.845 0.813-1.555c-0.042-2.483-0.99-6.647-2.565-6.742zm11.127 2.379c2.849 2.597 0.023 8.223-1.701 7.227-0.203-0.186-0.456-0.426-0.391-0.846 0.224-0.925 3.181-0.986 2.092-6.381zm-14.883 1.4c-0.353 0.04-0.706 0.236-0.957 0.565-0.857 2.124-2.149 3.532-3.59 4.699-0.446 0.584-0.391 1.363 0.123 1.744 0.515 0.382 1.289 0.217 1.735-0.367 2.197-1.836 5.373-5.965 3.041-6.629-0.114-0.022-0.234-0.025-0.352-0.012zm-8.5466 0.959c-0.0779 0.006-0.1559 0.021-0.2324 0.045-0.6126 0.196-0.92 0.915-0.6915 1.61 0.2625 2.826 1.8683 7.758 3.7595 6.259 0.335-0.316 0.465-0.849 0.293-1.371-1.2719-1.912-1.7-3.764-1.8415-5.595-0.1717-0.522-0.5951-0.878-1.0547-0.942-0.0766-0.01-0.1546-0.012-0.2324-0.006zm19.389 7.106s-2.195 2.639-2.195 4.181c0 1.543 0.991 2.791 2.213 2.792 1.222 0 2.211-1.249 2.211-2.792 0-1.542-2.105-4.303-2.229-4.181zm1.191 2.492c1.579 1.439 0.014 4.556-0.941 4.004-0.112-0.103-0.251-0.236-0.215-0.469 0.124-0.512 1.76-0.545 1.156-3.535zm3.262 6.039s-1.76 2.114-1.76 3.35c0 1.235 0.793 2.238 1.772 2.238s1.773-1.002 1.773-2.238-1.685-3.448-1.785-3.35zm0.85 1.889c1.526 1.211 0.015 3.836-0.908 3.371-0.109-0.087-0.247-0.197-0.211-0.393 0.119-0.431 1.702-0.462 1.119-2.978z" transform="matrix(.26458 0 0 .26458 0 284.3)"/>
 </g>
</svg>
